svg/logo.svg

<svg width="248" height="40" viewBox="0 0 248 40" fill="none" xmlns="http://www.w3.org/2000/svg">
<g clip-path="url(#clip0_212_10)">
<path fill-rule="evenodd" clip-rule="evenodd" d="M40 0H0V15L10 15H20L25 20L30 15H40L35 20L40 25H30H20H10L5 20L0 25V40H40V25V15V0Z" fill="white"/>
</g>
<path d="M66.96 34V5.6H89.72V34H83.64V10.72H73.04V34H66.96ZM104.641 34.48C102.455 34.48 100.548 34.0267 98.9213 33.12C97.2946 32.1867 96.0279 30.88 95.1213 29.2C94.2146 27.52 93.7613 25.5467 93.7613 23.28C93.7613 21.0133 94.2146 19.0533 95.1213 17.4C96.0279 15.72 97.2946 14.4133 98.9213 13.48C100.548 12.5467 102.455 12.08 104.641 12.08C106.828 12.08 108.735 12.5467 110.361 13.48C111.988 14.4133 113.255 15.72 114.161 17.4C115.068 19.0533 115.521 21.0133 115.521 23.28C115.521 25.5467 115.068 27.52 114.161 29.2C113.255 30.88 111.988 32.1867 110.361 33.12C108.735 34.0267 106.828 34.48 104.641 34.48ZM104.641 29.88C106.135 29.88 107.295 29.3067 108.121 28.16C108.948 26.9867 109.361 25.36 109.361 23.28C109.361 21.2 108.948 19.5867 108.121 18.44C107.295 17.2667 106.135 16.68 104.641 16.68C103.148 16.68 101.988 17.2667 101.161 18.44C100.335 19.5867 99.9213 21.2 99.9213 23.28C99.9213 25.36 100.335 26.9867 101.161 28.16C101.988 29.3067 103.148 29.88 104.641 29.88ZM119.257 34V12.56H126.337L131.657 28.56L136.897 12.56H143.977V34H137.977V22.24L133.737 34H129.497L125.257 22.24V34H119.257ZM163.697 34L154.977 23.28H161.857L170.857 34H163.697ZM149.257 34V12.56H155.297V34H149.257ZM154.977 23.28L163.297 12.56H170.377L161.857 23.28H154.977ZM179.445 34.48C177.232 34.48 175.419 33.9733 174.005 32.96C172.619 31.92 171.925 30.48 171.925 28.64C171.925 26.7467 172.512 25.2933 173.685 24.28C174.885 23.24 176.645 22.48 178.965 22L185.885 20.64C185.885 19.2533 185.565 18.2133 184.925 17.52C184.312 16.8 183.419 16.44 182.245 16.44C181.099 16.44 180.205 16.7067 179.565 17.24C178.925 17.7467 178.512 18.5067 178.325 19.52L172.285 19.24C172.685 16.8933 173.739 15.12 175.445 13.92C177.179 12.6933 179.445 12.08 182.245 12.08C185.445 12.08 187.845 12.84 189.445 14.36C191.072 15.88 191.885 18.1067 191.885 21.04V28.36C191.885 28.9733 191.979 29.3867 192.165 29.6C192.379 29.7867 192.685 29.88 193.085 29.88H193.685V34C193.499 34.0533 193.192 34.1067 192.765 34.16C192.365 34.2133 191.965 34.24 191.565 34.24C190.712 34.24 189.912 34.0933 189.165 33.8C188.445 33.5067 187.859 33.0133 187.405 32.32C186.952 31.6 186.725 30.5867 186.725 29.28L187.245 29.68C186.979 30.64 186.499 31.48 185.805 32.2C185.139 32.92 184.259 33.48 183.165 33.88C182.099 34.28 180.859 34.48 179.445 34.48ZM180.885 30.36C181.872 30.36 182.739 30.1733 183.485 29.8C184.232 29.4 184.819 28.8267 185.245 28.08C185.672 27.3333 185.885 26.4533 185.885 25.44V24.4L181.005 25.44C180.045 25.6267 179.312 25.9467 178.805 26.4C178.325 26.8267 178.085 27.3867 178.085 28.08C178.085 28.8 178.325 29.36 178.805 29.76C179.285 30.16 179.979 30.36 180.885 30.36ZM195.245 32.56V29.56H196.765C197.618 29.56 198.271 29.2533 198.725 28.64C199.205 28 199.538 27.0267 199.725 25.72L201.645 12.56H218.565V34H212.565V17.04H206.445L205.285 25.92C204.991 28.16 204.271 29.8267 203.125 30.92C201.978 32.0133 200.445 32.56 198.525 32.56H195.245ZM195.245 40V31.28H201.245V40H195.245ZM195.565 34V29.56H219.685V34H195.565ZM216.005 40V29.56H222.005V40H216.005ZM232.258 34.48C230.044 34.48 228.231 33.9733 226.818 32.96C225.431 31.92 224.738 30.48 224.738 28.64C224.738 26.7467 225.324 25.2933 226.498 24.28C227.698 23.24 229.458 22.48 231.778 22L238.698 20.64C238.698 19.2533 238.378 18.2133 237.738 17.52C237.124 16.8 236.231 16.44 235.058 16.44C233.911 16.44 233.018 16.7067 232.378 17.24C231.738 17.7467 231.324 18.5067 231.138 19.52L225.098 19.24C225.498 16.8933 226.551 15.12 228.258 13.92C229.991 12.6933 232.258 12.08 235.058 12.08C238.258 12.08 240.658 12.84 242.258 14.36C243.884 15.88 244.698 18.1067 244.698 21.04V28.36C244.698 28.9733 244.791 29.3867 244.978 29.6C245.191 29.7867 245.498 29.88 245.898 29.88H246.498V34C246.311 34.0533 246.004 34.1067 245.578 34.16C245.178 34.2133 244.778 34.24 244.378 34.24C243.524 34.24 242.724 34.0933 241.978 33.8C241.258 33.5067 240.671 33.0133 240.218 32.32C239.764 31.6 239.538 30.5867 239.538 29.28L240.058 29.68C239.791 30.64 239.311 31.48 238.618 32.2C237.951 32.92 237.071 33.48 235.978 33.88C234.911 34.28 233.671 34.48 232.258 34.48ZM233.698 30.36C234.684 30.36 235.551 30.1733 236.298 29.8C237.044 29.4 237.631 28.8267 238.058 28.08C238.484 27.3333 238.698 26.4533 238.698 25.44V24.4L233.818 25.44C232.858 25.6267 232.124 25.9467 231.618 26.4C231.138 26.8267 230.898 27.3867 230.898 28.08C230.898 28.8 231.138 29.36 231.618 29.76C232.098 30.16 232.791 30.36 233.698 30.36Z" fill="white"/>
<defs>
<clipPath id="clip0_212_10">
<rect width="40" height="40" rx="10" fill="white"/>
</clipPath>
</defs>
</svg>

<svg xmlns="http://www.w3.org/2000/svg" width="248" height="40" fill="none">
  <g clip-path="url(#a)">
    <g clip-path="url(#b)">
      <path fill="#fff" fill-rule="evenodd" d="M40 0H0v15h20l5 5 5-5h10l-5 5 5 5H10l-5-5-5 5v15h40V0Z" clip-rule="evenodd"/>
    </g>
    <path fill="#fff" d="M66.96 34V5.6h22.76V34h-6.08V10.72h-10.6V34h-6.08Zm37.681.48c-2.186 0-4.093-.453-5.72-1.36-1.626-.933-2.893-2.24-3.8-3.92-.906-1.68-1.36-3.653-1.36-5.92s.454-4.227 1.36-5.88c.907-1.68 2.174-2.987 3.8-3.92 1.627-.933 3.534-1.4 5.72-1.4 2.187 0 4.094.467 5.72 1.4 1.627.933 2.894 2.24 3.8 3.92.907 1.653 1.36 3.613 1.36 5.88s-.453 4.24-1.36 5.92c-.906 1.68-2.173 2.987-3.8 3.92-1.626.907-3.533 1.36-5.72 1.36Zm0-4.6c1.494 0 2.654-.573 3.48-1.72.827-1.173 1.24-2.8 1.24-4.88s-.413-3.693-1.24-4.84c-.826-1.173-1.986-1.76-3.48-1.76-1.493 0-2.653.587-3.48 1.76-.826 1.147-1.24 2.76-1.24 4.84s.414 3.707 1.24 4.88c.827 1.147 1.987 1.72 3.48 1.72ZM119.257 34V12.56h7.08l5.32 16 5.24-16h7.08V34h-6V22.24L133.737 34h-4.24l-4.24-11.76V34h-6Zm44.44 0-8.72-10.72h6.88l9 10.72h-7.16Zm-14.44 0V12.56h6.04V34h-6.04Zm5.72-10.72 8.32-10.72h7.08l-8.52 10.72h-6.88Zm24.468 11.2c-2.213 0-4.026-.507-5.44-1.52-1.386-1.04-2.08-2.48-2.08-4.32 0-1.893.587-3.347 1.76-4.36 1.2-1.04 2.96-1.8 5.28-2.28l6.92-1.36c0-1.387-.32-2.427-.96-3.12-.613-.72-1.506-1.08-2.68-1.08-1.146 0-2.04.267-2.68.8-.64.507-1.053 1.267-1.24 2.28l-6.04-.28c.4-2.347 1.454-4.12 3.16-5.32 1.734-1.227 4-1.84 6.8-1.84 3.2 0 5.6.76 7.2 2.28 1.627 1.52 2.44 3.747 2.44 6.68v7.32c0 .613.094 1.027.28 1.24.214.187.52.28.92.28h.6V34a6.791 6.791 0 0 1-.92.16c-.4.053-.8.08-1.2.08a6.508 6.508 0 0 1-2.4-.44c-.72-.293-1.306-.787-1.76-1.48-.453-.72-.68-1.733-.68-3.04l.52.4c-.266.96-.746 1.8-1.44 2.52-.666.72-1.546 1.28-2.64 1.68-1.066.4-2.306.6-3.72.6Zm1.44-4.12c.987 0 1.854-.187 2.6-.56a4.362 4.362 0 0 0 1.76-1.72c.427-.747.64-1.627.64-2.64V24.4l-4.88 1.04c-.96.187-1.693.507-2.2.96-.48.427-.72.987-.72 1.68 0 .72.24 1.28.72 1.68.48.4 1.174.6 2.08.6Zm14.36 2.2v-3h1.52c.853 0 1.506-.307 1.96-.92.48-.64.813-1.613 1-2.92l1.92-13.16h16.92V34h-6V17.04h-6.12l-1.16 8.88c-.294 2.24-1.014 3.907-2.16 5-1.147 1.093-2.68 1.64-4.6 1.64h-3.28Zm0 7.44v-8.72h6V40h-6Zm.32-6v-4.44h24.12V34h-24.12Zm20.44 6V29.56h6V40h-6Zm16.253-5.52c-2.214 0-4.027-.507-5.44-1.52-1.387-1.04-2.08-2.48-2.08-4.32 0-1.893.586-3.347 1.76-4.36 1.2-1.04 2.96-1.8 5.28-2.28l6.92-1.36c0-1.387-.32-2.427-.96-3.12-.614-.72-1.507-1.08-2.68-1.08-1.147 0-2.04.267-2.68.8-.64.507-1.054 1.267-1.24 2.28l-6.04-.28c.4-2.347 1.453-4.12 3.16-5.32 1.733-1.227 4-1.84 6.8-1.84 3.2 0 5.6.76 7.2 2.28 1.626 1.52 2.44 3.747 2.44 6.68v7.32c0 .613.093 1.027.28 1.24.213.187.52.28.92.28h.6V34a6.852 6.852 0 0 1-.92.16c-.4.053-.8.08-1.2.08a6.5 6.5 0 0 1-2.4-.44c-.72-.293-1.307-.787-1.76-1.48-.454-.72-.68-1.733-.68-3.04l.52.4c-.267.96-.747 1.8-1.44 2.52-.667.72-1.547 1.28-2.64 1.68-1.067.4-2.307.6-3.72.6Zm1.44-4.12c.986 0 1.853-.187 2.6-.56a4.375 4.375 0 0 0 1.76-1.72c.426-.747.64-1.627.64-2.64V24.4l-4.88 1.04c-.96.187-1.694.507-2.2.96-.48.427-.72.987-.72 1.68 0 .72.24 1.28.72 1.68.48.4 1.173.6 2.08.6Z"/>
  </g>
  <defs>
    <clipPath id="a">
      <path fill="#fff" d="M0 0h248v40H0z"/>
    </clipPath>
    <clipPath id="b">
      <rect width="40" height="40" fill="#fff" rx="10"/>
    </clipPath>
  </defs>
</svg>
